dist/img/svg/whatsapp.svg

<svg width="24" height="24" viewBox="0 0 24 24" fill="none" xmlns="http://www.w3.org/2000/svg">
<path fill-rule="evenodd" clip-rule="evenodd" d="M19.6358 4.5355C17.6668 2.56425 15.0484 1.47819 12.2586 1.47705C6.51035 1.47705 1.83189 6.15513 1.82965 11.9051C1.82884 13.7432 2.30907 15.5373 3.22174 17.1189L1.74219 22.523L7.2707 21.0728C8.79394 21.9036 10.509 22.3416 12.2544 22.3421H12.2587C12.2583 22.3421 12.259 22.3421 12.2587 22.3421C18.0063 22.3421 22.6851 17.6636 22.6875 11.9135C22.6886 9.12684 21.6048 6.50667 19.6358 4.5355ZM12.2586 20.5809H12.2551C10.6998 20.5803 9.17422 20.1624 7.84334 19.3726L7.52686 19.1848L4.24616 20.0454L5.12186 16.8467L4.91574 16.5187C4.04808 15.1387 3.58982 13.5436 3.5905 11.9057C3.59236 7.12655 7.48093 3.23841 12.2621 3.23841C14.5773 3.23913 16.7537 4.14197 18.3903 5.7804C20.0268 7.41882 20.9276 9.59666 20.9267 11.9128C20.9247 16.6923 17.0363 20.5809 12.2586 20.5809Z" fill="currentColor"/>
<path fill-rule="evenodd" clip-rule="evenodd" d="M17.0147 14.0889C16.7541 13.9585 15.473 13.3282 15.2341 13.2412C14.9953 13.1542 14.8215 13.1107 14.6479 13.3716C14.4742 13.6324 13.9748 14.2194 13.8227 14.3933C13.6708 14.5672 13.5187 14.589 13.2582 14.4585C12.9976 14.3281 12.158 14.0529 11.1627 13.1652C10.388 12.4742 9.86504 11.6209 9.71298 11.3599C9.561 11.0991 9.69681 10.9581 9.82728 10.8282C9.9445 10.7114 10.0879 10.5238 10.2182 10.3716C10.3484 10.2195 10.3919 10.1107 10.4787 9.93695C10.5656 9.76301 10.5222 9.61082 10.457 9.48043C10.3919 9.35 9.87076 8.06739 9.65363 7.54555C9.44205 7.03751 9.22725 7.10634 9.06727 7.09825C8.91551 7.09068 8.74156 7.08911 8.56787 7.08911C8.39417 7.08911 8.11181 7.15435 7.87301 7.41516C7.63416 7.67606 6.96094 8.30653 6.96094 9.58902C6.96094 10.8717 7.89468 12.1108 8.02498 12.2846C8.15524 12.4586 9.86246 15.0906 12.4765 16.2193C13.0982 16.4878 13.5836 16.6481 13.962 16.7682C14.5862 16.9666 15.1543 16.9385 15.6033 16.8714C16.1039 16.7966 17.145 16.2411 17.3621 15.6325C17.5793 15.0237 17.5793 14.5019 17.5141 14.3933C17.449 14.2846 17.2753 14.2194 17.0147 14.0889Z" fill="currentColor"/>
</svg>

<svg width="24" height="24" viewBox="0 0 24 24" fill="none" xmlns="http://www.w3.org/2000/svg"><path fill-rule="evenodd" clip-rule="evenodd" d="M19.636 4.535a10.361 10.361 0 00-7.377-3.058c-5.749 0-10.427 4.678-10.43 10.428 0 1.838.48 3.632 1.393 5.214l-1.48 5.404 5.529-1.45a10.42 10.42 0 004.983 1.27h.005c5.747 0 10.426-4.68 10.428-10.43a10.366 10.366 0 00-3.051-7.378zm-7.377 16.046h-.004a8.655 8.655 0 01-4.412-1.208l-.316-.188-3.28.86.875-3.198-.206-.328a8.647 8.647 0 01-1.326-4.613c.002-4.78 3.89-8.668 8.672-8.668A8.61 8.61 0 0118.39 5.78a8.616 8.616 0 012.537 6.133c-.002 4.78-3.89 8.668-8.668 8.668z" fill="currentColor"/><path fill-rule="evenodd" clip-rule="evenodd" d="M17.015 14.089c-.26-.13-1.542-.76-1.78-.848-.24-.087-.413-.13-.587.13-.174.261-.673.848-.825 1.022-.152.174-.304.196-.565.066-.26-.13-1.1-.406-2.095-1.294-.775-.69-1.298-1.544-1.45-1.805-.152-.26-.016-.402.114-.532.117-.117.26-.304.391-.456.13-.152.174-.261.26-.435.088-.174.044-.326-.021-.457-.065-.13-.586-1.413-.803-1.934-.212-.508-.427-.44-.587-.448a11.205 11.205 0 00-.5-.009.957.957 0 00-.694.326c-.239.261-.912.892-.912 2.174 0 1.283.934 2.522 1.064 2.696.13.174 1.837 2.806 4.451 3.934.622.269 1.108.43 1.486.55.624.198 1.192.17 1.641.102.5-.074 1.542-.63 1.76-1.238.216-.61.216-1.131.151-1.24-.065-.108-.239-.174-.5-.304z" fill="currentColor"/></svg>
